assets/icons/regular/calendar-plus.svg

<svg xmlns="http://www.w3.org/2000/svg" viewBox="0 0 448 512"><!--! Font Awesome Free 6.6.0 by @fontawesome - https://fontawesome.com License - https://fontawesome.com/license/free (Icons: CC BY 4.0, Fonts: SIL OFL 1.1, Code: MIT License) Copyright 2024 Fonticons, Inc. --><path d="M152 24c0-13.3-10.7-24-24-24s-24 10.7-24 24l0 40L64 64C28.7 64 0 92.7 0 128l0 16 0 48L0 448c0 35.3 28.7 64 64 64l320 0c35.3 0 64-28.7 64-64l0-256 0-48 0-16c0-35.3-28.7-64-64-64l-40 0 0-40c0-13.3-10.7-24-24-24s-24 10.7-24 24l0 40L152 64l0-40zM48 192l352 0 0 256c0 8.8-7.2 16-16 16L64 464c-8.8 0-16-7.2-16-16l0-256zm176 40c-13.3 0-24 10.7-24 24l0 48-48 0c-13.3 0-24 10.7-24 24s10.7 24 24 24l48 0 0 48c0 13.3 10.7 24 24 24s24-10.7 24-24l0-48 48 0c13.3 0 24-10.7 24-24s-10.7-24-24-24l-48 0 0-48c0-13.3-10.7-24-24-24z"/></svg>

<svg xmlns="http://www.w3.org/2000/svg" viewBox="0 0 448 512"><!--! Font Awesome Pro 6.5.1 by @fontawesome - https://fontawesome.com License - https://fontawesome.com/license (Commercial License) Copyright 2023 Fonticons, Inc. --><path d="M152 24c0-13.3-10.7-24-24-24s-24 10.7-24 24V64H64C28.7 64 0 92.7 0 128v16 48V448c0 35.3 28.7 64 64 64H384c35.3 0 64-28.7 64-64V192 144 128c0-35.3-28.7-64-64-64H344V24c0-13.3-10.7-24-24-24s-24 10.7-24 24V64H152V24zM48 192H400V448c0 8.8-7.2 16-16 16H64c-8.8 0-16-7.2-16-16V192zm176 40c-13.3 0-24 10.7-24 24v48H152c-13.3 0-24 10.7-24 24s10.7 24 24 24h48v48c0 13.3 10.7 24 24 24s24-10.7 24-24V352h48c13.3 0 24-10.7 24-24s-10.7-24-24-24H248V256c0-13.3-10.7-24-24-24z"/></svg>
